Catalina-dark/actions/16/focus-legacy-systray.svg

<?xml version="1.0" encoding="UTF-8" standalone="no"?>
<svg
   xmlns:dc="http://purl.org/dc/elements/1.1/"
   xmlns:cc="http://creativecommons.org/ns#"
   xmlns:rdf="http://www.w3.org/1999/02/22-rdf-syntax-ns#"
   xmlns:svg="http://www.w3.org/2000/svg"
   xmlns="http://www.w3.org/2000/svg"
   xmlns:sodipodi="http://sodipodi.sourceforge.net/DTD/sodipodi-0.dtd"
   xmlns:inkscape="http://www.inkscape.org/namespaces/inkscape"
   width="16"
   height="16"
   viewBox="0 0 16 16"
   version="1.1"
   id="svg7"
   sodipodi:docname="focus-legacy-systray.svg"
   inkscape:version="0.92.4 5da689c313, 2019-01-14">
  <metadata
     id="metadata11">
    <rdf:RDF>
      <cc:Work
         rdf:about="">
        <dc:format>image/svg+xml</dc:format>
        <dc:type
           rdf:resource="http://purl.org/dc/dcmitype/StillImage" />
      </cc:Work>
    </rdf:RDF>
  </metadata>
  <sodipodi:namedview
     pagecolor="#ffffff"
     bordercolor="#666666"
     borderopacity="1"
     objecttolerance="10"
     gridtolerance="10"
     guidetolerance="10"
     inkscape:pageopacity="0"
     inkscape:pageshadow="2"
     inkscape:window-width="640"
     inkscape:window-height="480"
     id="namedview9"
     showgrid="false"
     inkscape:zoom="14.75"
     inkscape:cx="6.8135593"
     inkscape:cy="8"
     inkscape:window-x="0"
     inkscape:window-y="26"
     inkscape:window-maximized="0"
     inkscape:current-layer="svg7" />
  <defs
     id="defs3">
    <style
       id="current-color-scheme"
       type="text/css">
   .ColorScheme-Text { color:#5c616c; } .ColorScheme-Highlight { color:#5294e2; }
  </style>
  </defs>
  <path
     style="fill:#f1f6f8;fill-opacity:0.8509804"
     class="ColorScheme-Text"
     d="M 0 2.0097656 L 0 14.009766 L 10 14.009766 L 10 4.0097656 C 10 2.0097656 8 2.0097656 8 2.0097656 L 0 2.0097656 z M 10 2.0097656 C 10 2.0097656 11 2.0097656 11 4.0097656 L 11 14.009766 L 12 14.009766 L 12 4.0097656 C 12 2.0097656 10 2.0097656 10 2.0097656 z M 12 2.0097656 C 12 2.0097656 13 2.0097656 13 4.0097656 L 13 14.009766 L 14 14.009766 L 14 4.0097656 C 14 2.0097656 12 2.0097656 12 2.0097656 z M 3 5.0097656 L 7.5 8.0097656 L 3 11.009766 L 3 5.0097656 z"
     id="path5" />
</svg>

<svg width="16" height="16" version="1.1" viewBox="0 0 16 16" xmlns="http://www.w3.org/2000/svg">
<defs>
<style id="current-color-scheme" type="text/css">.ColorScheme-Text { color:#5c616c; } .ColorScheme-Highlight { color:#5294e2; }</style>
</defs>
<path class="ColorScheme-Text" d="m0 2.0098v12h10v-10c0-2-2-2-2-2h-8zm10 0s1 0 1 2v10h1v-10c0-2-2-2-2-2zm2 0s1 0 1 2v10h1v-10c0-2-2-2-2-2zm-9 3 4.5 3-4.5 3v-6z" fill="#dedede" fill-opacity=".85098"/>
</svg>
